__todo__/codeclimate-icon.svg

<svg preserveAspectRatio="xMidYMid" viewBox="0 0 256 142" xmlns="http://www.w3.org/2000/svg"><path d="m84.8414986 28.2992138 28.7723344 28.7723343 28.772334 29.5100865 27.29683 27.2968304-28.772334 28.034582-27.29683-26.559078-28.7723344-28.7723344-8.1152738 6.6397694-36.8876081 37.62536-11.0662824 11.066283-28.7723343-28.034582 10.3285303-12.541787zm86.3170024-28.2992138 84.841499 84.1037464-28.772334 29.5100866-56.069165-56.0691644-19.919308 19.9193083-28.772334-28.7723342z" fill="#2b2b2b"/></svg>

<?xml version="1.0" encoding="UTF-8"?>
<svg width="256px" height="142px" viewBox="0 0 256 142" version="1.1" xmlns="http://www.w3.org/2000/svg" preserveAspectRatio="xMidYMid">
    <title>Code Climate</title>
    <g>
        <path d="M84.8414986,28.2992138 L113.613833,57.0715481 L142.386167,86.5816346 L169.682997,113.878465 L140.910663,141.913047 L113.613833,115.353969 L84.8414986,86.5816346 L76.7262248,93.221404 L39.8386167,130.846764 L28.7723343,141.913047 L0,113.878465 L10.3285303,101.336678 L84.8414986,28.2992138 Z M171.158501,-3.55271368e-15 L256,84.1037464 L227.227666,113.613833 L171.158501,57.5446686 L151.239193,77.4639769 L122.466859,48.6916427 L171.158501,-3.55271368e-15 Z" fill="#2B2B2B"></path>
    </g>
</svg>
